X:1
T:Title
%%score { ( 1 4 ) | ( 2 3 ) }
L:1/8
M:4/4
K:Ab
V:1 treble nm="Grand Piano"
V:4 treble 
V:2 bass 
V:3 bass 
V:1
 z4 z2[Q:1/4=96] [CE]>[CA] | [Ec]>[=D_c] [E=c]>[Fd] [Ec]>[EB] [EA]>E | G>F F>=E F2 B>[FA] | %3
 G>_G =G>A B>G F>[EG] | [EA]>[EG] [EA]>B c2 [CE]>[CA] | c>_c =c>d e>c [EB]>[EA] | %6
 [EG]>F =E>F [Fd]4 | c2 c>d c .E3 | B3 [CA] [CA]4 | e2 e>f e .c3 | [FA]2 z2 [Ac]4 | %11
 [GB]2 [GB]>[Ac] [GB] .[Ge]3 |[M:9/8] =d2 d- d z z z3 |[M:4/4] c>_c =c>d e>c [EB]>[EA] | %14
 [EG]>F =E>F [Fd]4 | c2 c>d c .E3 |[M:8/4] B3 [CA] [CA]4 z8 |] %17
V:2
 z4 z2 [A,,A,]>[A,,A,] | [A,,A,]>[A,,A,] [A,,A,]>[A,,A,] [A,,A,]>[B,,G,] [C,A,]>[C,A,] | %2
 [D,A,E]>[D,A,D] [D,A,D]>[D,G,D] [D,A,D]2 [D,F,D]>[=D,A,] | %3
 [E,B,E]>[E,=A,E] [E,B,E]>[E,CE] [E,DE]>[E,B,E] [E,G,D]>[D,B,] | %4
 [C,A,]>[B,,B,] [C,A,]>[E,G,E] [A,E]2 [A,,A,]>[A,,A,] | z4 E2 z2 | %6
 [D,A,]>[D,A,D] [D,G,D]>[D,A,D] [D,A,]4 | [E,A,E]2 [E,A,E]>[E,B,E] [E,A,E] .[E,A,C]3 | %8
 [E,G,D]3 [A,,A,] [A,,A,]4 | [A,CA]2 [A,CA]>[A,DA] [A,CA] .[A,E_G]3 | [D,D]>D, D,2 A,,>A,, A,,2 | %11
 [E,E]2 [E,E]>[E,E] [E,E] .[E,B,]3 |[M:9/8][K:treble] z2 [B,A]- [B,A][K:bass] z z z3 | %13
[M:4/4] z4 E2 z2 | [D,A,]>[D,A,D] [D,G,D]>[D,A,D] [D,A,]4 | %15
 [E,A,E]2 [E,A,E]>[E,B,E] [E,A,E] .[E,A,C]3 |[M:8/4] [E,G,D]3 [A,,A,] [A,,A,]4 z8 |] %17
V:3
 x8 | x8 | x8 | x8 | x8 | [A,E]>[A,=D] [A,E]>[A,B,E] [A,C]>[A,,A,] [B,,G,]>[C,A,] | x8 | x8 | x8 | %9
 x8 | x8 | x8 |[M:9/8][K:treble] [B,F]2 G,- G,/ z/[K:bass] [E,B,]2- [E,B,][E,B,]>[E,G,E] | %13
[M:4/4] [A,E]>[A,=D] [A,E]>[A,B,E] [A,C]>[A,,A,] [B,,G,]>[C,A,] | x8 | x8 |[M:8/4] x16 |] %17
V:4
 x8 | x8 | x8 | x8 | x8 | x8 | x8 | x8 | x8 | x8 | z z/ D/ [DFA]2 E>E E2 | x8 | %12
[M:9/8] z z/ .A,3/2 z/ F,/ [Ge]2- [Ge][Ge]>_d |[M:4/4] x8 | x8 | x8 |[M:8/4] x16 |] %17

